brandFactory_export/3.Masa/Hospital_3Masa.svg

<?xml version="1.0" encoding="UTF-8"?>
<svg width="24px" height="24px" viewBox="0 0 24 24" version="1.1" xmlns="http://www.w3.org/2000/svg" xmlns:xlink="http://www.w3.org/1999/xlink">
    <title>3.Masa/Hospital_3Masa</title>
    <g id="Symbols" stroke="none" stroke-width="1" fill="none" fill-rule="evenodd">
        <g id="3.Masa/Hospital_3Masa" fill="#5CB615" fill-rule="nonzero">
            <path d="M9.62689076,22.2117647 L14.0033613,22.2117647 L14.0033613,15.0789916 L9.62689076,15.0789916 L9.62689076,22.2117647 Z M5.1092437,1.68739496 L5.1092437,22.2117647 L8.18823529,22.2117647 L8.18823529,14.3563025 C8.18823529,13.9563025 8.51092437,13.6336134 8.90756303,13.6336134 L14.7226891,13.6336134 C15.1193277,13.6336134 15.4420168,13.9563025 15.4420168,14.3563025 L15.4420168,22.2117647 L18.5210084,22.2117647 L18.5210084,1.68739496 C18.5210084,1.60672269 18.4168067,1.49243697 18.3630252,1.4789916 L5.25378151,1.4789916 C5.21008403,1.49243697 5.1092437,1.60672269 5.1092437,1.68739496 Z M22.692437,3.57310924 C23.2773109,3.57310924 23.6235294,4.13445378 23.6235294,5.0789916 L23.6235294,22.1512605 C23.6235294,23.092437 23.2739496,23.6571429 22.692437,23.6571429 L8.90756303,23.6571429 L0.937815126,23.6571429 C0.352941176,23.6571429 0.00336134454,23.0957983 0.00336134454,22.1512605 L0.00336134454,5.0789916 C0.00336134454,4.13445378 0.352941176,3.57310924 0.937815126,3.57310924 L3.67394958,3.57310924 L3.67394958,1.68403361 C3.67394958,0.820168067 4.42689076,0.0302521008 5.25714286,0.0302521008 L18.3798319,0.0302521008 C19.210084,0.0302521008 19.9630252,0.820168067 19.9630252,1.68403361 L19.9630252,3.5697479 L22.692437,3.57310924 Z M8.18823529,8.63865546 C7.79831933,8.63865546 7.46554622,8.34621849 7.46554622,7.99663866 L7.46554622,6.21848739 C7.46554622,5.8789916 7.80168067,5.57983193 8.18823529,5.57983193 L10.2890756,5.57983193 L10.2890756,3.47226891 C10.2890756,3.08235294 10.5882353,2.7394958 10.9277311,2.7394958 L12.6957983,2.7394958 C13.0285714,2.7394958 13.3344538,3.08907563 13.3344538,3.47226891 L13.3344538,5.57310924 L15.4352941,5.57310924 C15.8151261,5.57310924 16.1647059,5.8789916 16.1647059,6.21512605 L16.1647059,7.99663866 C16.1647059,8.33277311 15.8184874,8.63865546 15.4352941,8.63865546 L13.3344538,8.63865546 L13.3411765,10.7462185 C13.3411765,11.1394958 13.0487395,11.4722689 12.702521,11.4722689 L10.9277311,11.4722689 C10.5882353,11.4722689 10.2890756,11.1327731 10.2890756,10.7462185 L10.2890756,8.63865546 L8.18823529,8.63865546 Z" id="Hospital_3Masa"></path>
        </g>
    </g>
</svg>

<svg width="24" height="24" viewBox="0 0 24 24" xmlns="http://www.w3.org/2000/svg"><path d="M9.627 22.212h4.376v-7.133H9.627v7.133zM5.109 1.687v20.525h3.08v-7.856c0-.4.322-.722.719-.722h5.815a.72.72 0 01.719.722v7.856h3.079V1.687c0-.08-.104-.195-.158-.208H5.253c-.043.013-.144.128-.144.208zm17.583 1.886c.585 0 .932.561.932 1.506v17.072c0 .941-.35 1.506-.932 1.506H.938c-.585 0-.935-.561-.935-1.506V5.08c0-.945.35-1.506.935-1.506h2.736V1.684C3.674.82 4.427.03 5.257.03H18.38c.83 0 1.583.79 1.583 1.654V3.57l2.73.003zM8.188 8.64c-.39 0-.722-.293-.722-.642V6.218c0-.339.336-.638.722-.638h2.101V3.472c0-.39.3-.733.639-.733h1.768c.333 0 .638.35.638.733v2.101h2.101c.38 0 .73.306.73.642v1.782c0 .336-.347.642-.73.642h-2.1l.006 2.107c0 .393-.292.726-.638.726h-1.775c-.34 0-.639-.34-.639-.726V8.64h-2.1z" fill="#5CB615" fill-rule="nonzero"/></svg>
